libs/icons/src/svg/margin-left.svg

<svg width="16" height="16" viewBox="0 0 16 16" fill="none" xmlns="http://www.w3.org/2000/svg">
<path fill-rule="evenodd" clip-rule="evenodd" d="M0 2.00001C0 1.63182 0.298477 1.33334 0.666667 1.33334H15.3333C15.7015 1.33334 16 1.63182 16 2.00001C16 2.3682 15.7015 2.66668 15.3333 2.66668H0.666667C0.298477 2.66668 0 2.3682 0 2.00001ZM8.66667 6.00001C8.66667 5.63182 8.96514 5.33334 9.33333 5.33334H15.3333C15.7015 5.33334 16 5.63182 16 6.00001C16 6.3682 15.7015 6.66668 15.3333 6.66668H9.33333C8.96514 6.66668 8.66667 6.3682 8.66667 6.00001ZM9.33333 9.33334C8.96514 9.33334 8.66667 9.63182 8.66667 10C8.66667 10.3682 8.96514 10.6667 9.33333 10.6667H15.3333C15.7015 10.6667 16 10.3682 16 10C16 9.63182 15.7015 9.33334 15.3333 9.33334H9.33333ZM0 14C0 13.6318 0.298477 13.3333 0.666667 13.3333H15.3333C15.7015 13.3333 16 13.6318 16 14C16 14.3682 15.7015 14.6667 15.3333 14.6667H0.666667C0.298477 14.6667 0 14.3682 0 14ZM0.666667 7.33334C0.298477 7.33334 0 7.63182 0 8.00001C0 8.3682 0.298477 8.66668 0.666667 8.66668H4.66667V9.33334C4.66667 9.60299 4.82909 9.84608 5.07821 9.94926C5.32733 10.0525 5.61407 9.99541 5.80474 9.80475L7.13807 8.47141C7.39842 8.21107 7.39842 7.78896 7.13807 7.52861L5.80474 6.19527C5.61407 6.00461 5.32733 5.94757 5.07821 6.05076C4.82909 6.15394 4.66667 6.39704 4.66667 6.66668V7.33334H0.666667Z" fill="#202327"/>
</svg>

<svg xmlns="http://www.w3.org/2000/svg" viewBox="0 0 16 16" class="sageicon"><path fill-rule="evenodd" d="M0 2c0-.368.298-.667.667-.667h14.666a.667.667 0 1 1 0 1.334H.667A.667.667 0 0 1 0 2Zm8.667 4c0-.368.298-.667.666-.667h6a.667.667 0 1 1 0 1.334h-6A.667.667 0 0 1 8.667 6Zm.666 3.333a.667.667 0 0 0 0 1.334h6a.667.667 0 0 0 0-1.334h-6ZM0 14c0-.368.298-.667.667-.667h14.666a.667.667 0 0 1 0 1.334H.667A.667.667 0 0 1 0 14Zm.667-6.667a.667.667 0 0 0 0 1.334h4v.666a.667.667 0 0 0 1.138.472L7.138 8.47a.667.667 0 0 0 0-.942L5.805 6.195a.667.667 0 0 0-1.138.472v.666h-4Z"/></svg>
